svgs/duotone/dryer-heat.svg

<svg xmlns="http://www.w3.org/2000/svg" viewBox="0 0 448 512"><!-- Font Awesome Pro 6.0.0-alpha2 by @fontawesome - https://fontawesome.com License - https://fontawesome.com/license (Commercial License) --><defs><style>.fa-secondary{opacity:.4}</style></defs><path d="M216 272C216 249.375 204 237.375 195.25 228.625C189.5 222.875 186.125 219.25 184.75 214C183.875 210.5 180.625 208 177 208H160.75C158.375 208 156 209.125 154.5 210.875C153 212.75 152.25 215.125 152.75 217.5C155.5 234.125 165.25 243.875 172.625 251.375C180.5 259.125 184 263 184 272S180.5 284.875 172.75 292.75C164 301.5 152 313.375 152 336C152 358.75 164 370.625 172.75 379.375C178.5 385.125 181.875 388.75 183.25 393.875C184.125 397.5 187.375 400 191 400H207.375C209.75 400 212 398.875 213.5 397.125C215.125 395.25 215.75 392.875 215.375 390.5C212.5 373.875 202.75 364.125 195.375 356.75C187.5 348.875 184 345 184 336C184 327.125 187.5 323.25 195.25 315.375C204 306.625 216 294.625 216 272ZM264 336C264 327.125 267.5 323.25 275.25 315.375C284 306.625 296 294.625 296 272S284 237.375 275.25 228.625C269.5 222.875 266.125 219.25 264.75 214C263.875 210.5 260.625 208 257 208H240.75C238.375 208 236 209.125 234.5 210.875C233 212.75 232.25 215.125 232.75 217.5C235.5 234.125 245.25 243.875 252.625 251.375C260.5 259.125 264 263 264 272S260.5 284.875 252.75 292.75C244 301.5 232 313.375 232 336C232 358.75 244 370.625 252.75 379.375C258.5 385.125 261.875 388.75 263.25 393.875C264.125 397.5 267.375 400 271 400H287.375C289.75 400 292 398.875 293.5 397.125C295 395.25 295.625 392.875 295.25 390.5C292.5 373.875 282.75 364.125 275.375 356.75C267.5 348.875 264 345 264 336ZM184 112C197.25 112 208 101.25 208 88S197.25 64 184 64S160 74.75 160 88S170.75 112 184 112Z" class="fa-secondary"/><path d="M384 0H64C28.654 0 0 28.652 0 64V464C0 490.4 21.6 512 48 512H400C426.4 512 448 490.4 448 464V64C448 28.652 419.346 0 384 0ZM184 64C197.25 64 208 74.75 208 88S197.25 112 184 112S160 101.25 160 88S170.75 64 184 64ZM64 88C64 74.75 74.75 64 88 64S112 74.75 112 88S101.25 112 88 112S64 101.25 64 88ZM224 448C144.5 448 80 383.5 80 304S144.5 160 224 160S368 224.5 368 304S303.5 448 224 448Z" class="fa-primary"/></svg>

<svg xmlns="http://www.w3.org/2000/svg" viewBox="0 0 448 512"><!--! Font Awesome Pro 6.3.0 by @fontawesome - https://fontawesome.com License - https://fontawesome.com/license (Commercial License) Copyright 2023 Fonticons, Inc. --><defs><style>.fa-secondary{opacity:.4}</style></defs><path class="fa-primary" d="M384 0H64C28.65 0 0 28.65 0 64v400C0 490.4 21.6 512 48 512h352c26.4 0 48-21.6 48-48V64C448 28.65 419.3 0 384 0zM184 64C197.3 64 208 74.75 208 88S197.3 112 184 112S160 101.3 160 88S170.8 64 184 64zM64 88C64 74.75 74.75 64 88 64S112 74.75 112 88S101.3 112 88 112S64 101.3 64 88zM224 448c-79.5 0-143.1-64.5-143.1-144S144.5 160 224 160s143.1 64.5 143.1 144S303.5 448 224 448z"/><path class="fa-secondary" d="M216 272c0-22.62-12-34.63-20.75-43.38C189.5 222.9 186.1 219.3 184.8 214C183.9 210.5 180.6 208 177 208H160.8C158.4 208 156 209.1 154.5 210.9C153 212.8 152.3 215.1 152.8 217.5c2.75 16.62 12.5 26.38 19.87 33.88C180.5 259.1 184 263 184 272S180.5 284.9 172.8 292.8C164 301.5 152 313.4 152 336c0 22.75 12 34.63 20.75 43.38c5.75 5.75 9.125 9.375 10.5 14.5C184.1 397.5 187.4 400 191 400h16.38c2.375 0 4.625-1.125 6.125-2.875c1.625-1.875 2.25-4.25 1.875-6.625c-2.875-16.62-12.62-26.37-20-33.75C187.5 348.9 184 345 184 336c0-8.875 3.5-12.75 11.25-20.62C204 306.6 216 294.6 216 272zM264 336c0-8.875 3.5-12.75 11.25-20.62C284 306.6 296 294.6 296 272s-12-34.63-20.75-43.38C269.5 222.9 266.1 219.3 264.8 214C263.9 210.5 260.6 208 257 208h-16.25C238.4 208 236 209.1 234.5 210.9c-1.5 1.875-2.25 4.25-1.75 6.625c2.75 16.62 12.5 26.38 19.88 33.88C260.5 259.1 264 263 264 272s-3.5 12.88-11.25 20.75C244 301.5 232 313.4 232 336c0 22.75 12 34.63 20.75 43.38c5.75 5.75 9.125 9.375 10.5 14.5C264.1 397.5 267.4 400 271 400h16.38c2.375 0 4.625-1.125 6.125-2.875c1.5-1.875 2.125-4.25 1.75-6.625c-2.75-16.62-12.5-26.37-19.88-33.75C267.5 348.9 264 345 264 336zM184 112c13.25 0 24-10.75 24-24S197.3 64 184 64S160 74.75 160 88S170.8 112 184 112z"/></svg>
